src/assets/images/icons/document.svg

<svg width="24" height="29" viewBox="0 0 24 29" fill="none" xmlns="http://www.w3.org/2000/svg">
<path d="M4.97314 28.7725H19.0269C21.8613 28.7725 23.3247 27.2827 23.3247 24.4351V12.4644C23.3247 10.6187 23.0874 9.7749 21.9404 8.60156L15.0454 1.60107C13.9248 0.467285 13.002 0.203613 11.3408 0.203613H4.97314C2.15186 0.203613 0.675293 1.69336 0.675293 4.5542V24.4351C0.675293 27.2827 2.15186 28.7725 4.97314 28.7725ZM5.19727 26.1357C3.93164 26.1357 3.29883 25.4766 3.29883 24.2637V4.7124C3.29883 3.5127 3.93164 2.84033 5.21045 2.84033H10.8003V10.0122C10.8003 11.9238 11.7363 12.8467 13.6348 12.8467H20.7012V24.2637C20.7012 25.4766 20.0684 26.1357 18.7896 26.1357H5.19727ZM13.8853 10.5396C13.3315 10.5396 13.0942 10.3022 13.0942 9.76172V3.18311L20.3452 10.5396H13.8853Z" fill="#F8F8F2"/>
</svg>

<svg xmlns="http://www.w3.org/2000/svg" width="24" height="29" fill="none"><path fill="#E1E2E8" d="M5 28.8h14c2.9 0 4.3-1.5 4.3-4.4v-12c0-1.8-.2-2.6-1.4-3.8l-6.9-7C14 .5 13 .2 11.3.2H5C2.2.2.7 1.7.7 4.6v19.8c0 2.9 1.5 4.4 4.3 4.4Zm.2-2.7c-1.3 0-1.9-.6-1.9-1.8V4.7c0-1.2.6-1.9 2-1.9h5.5V10c0 2 1 2.8 2.8 2.8h7.1v11.5c0 1.2-.6 1.8-2 1.8H5.3Zm8.7-15.6c-.6 0-.8-.2-.8-.7V3.2l7.2 7.3H14Z"/></svg>
